packages/foundations/assets/icons/functional/images/food/cup_20.svg

<svg width="20" height="20" viewBox="0 0 20 20" fill="none" xmlns="http://www.w3.org/2000/svg">
<g clip-path="url(#clip0_185_1051)">
<path fill-rule="evenodd" clip-rule="evenodd" d="M14.5 8C16.1562 8 17.5 9.34375 17.5 11.0312C17.5 12.6562 16.1562 14 14.5 14H13.5V14.5C13.5 16.4375 11.9375 18 10 18H6C4.0625 18 2.5 16.4375 2.5 14.5V8H14.5ZM11.5 10H4.5V14.5C4.5 15.3438 5.15625 16.0312 6 16.0312H10C10.8438 16.0312 11.5 15.3438 11.5 14.5V10ZM14.5 10H13.5V12H14.5C15.0625 12 15.5 11.5625 15.5 11.0312C15.5 10.4375 15.0625 10 14.5 10ZM4.5 6H6.5V3H4.5V6ZM8.5 6H10.5V2H8.5V6Z" fill="#1A1C1F"/>
</g>
<defs>
<clipPath id="clip0_185_1051">
<rect width="20" height="20" fill="white"/>
</clipPath>
</defs>
</svg>

<svg xmlns="http://www.w3.org/2000/svg" width="20" height="20" fill="none"><g clip-path="url(#a)"><path fill="#1A1C1F" fill-rule="evenodd" d="M14.5 8c1.656 0 3 1.344 3 3.031 0 1.625-1.344 2.969-3 2.969h-1v.5c0 1.938-1.562 3.5-3.5 3.5H6a3.494 3.494 0 0 1-3.5-3.5V8zm-3 2h-7v4.5c0 .844.656 1.531 1.5 1.531h4c.844 0 1.5-.687 1.5-1.531zm3 0h-1v2h1a.98.98 0 0 0 1-.969c0-.594-.437-1.031-1-1.031m-10-4h2V3h-2zm4 0h2V2h-2z" clip-rule="evenodd"/></g><defs><clipPath id="a"><path fill="#fff" d="M0 0h20v20H0z"/></clipPath></defs></svg>
